src/actions/24/resource-calendar-insert.svg

<svg viewBox="0 0 24 24" xmlns="http://www.w3.org/2000/svg">
 <defs>
  <style type="text/css">.ColorScheme-Text {
        color:#2e3440;
      }</style>
 </defs>
 <path class="ColorScheme-Text" d="m7 4s-1-3e-5 -1 1h-2v3 11 1h10v-1h-9v-11h14v6h1v-6-3h-2c0-1-1-1-1-1h-3s-1-3e-5 -1 1h-2c0-1-1-1-1-1h-3zm0 1h3v1h-3v-1zm7 0h3v1h-3v-1zm-7 4v2h2v-2h-2zm4 0v2h2v-2h-2zm4 0v2h2v-2h-2zm-8 3v2h2v-2h-2zm4 0v2h2v-2h-2zm4 0v2h2v-2h-2zm2 3v2h-2v1h2v2h1v-2h2v-1h-2v-2h-1z" fill="currentColor"/>
</svg>

<svg xmlns="http://www.w3.org/2000/svg" viewBox="0 0 24 24">
  <defs id="defs3051">
    <style type="text/css" id="current-color-scheme">
      .ColorScheme-Text {
        color:#2e3440;
      }
      </style>
  </defs>
 <path style="fill:currentColor;fill-opacity:1;stroke:none" 
     d="M 7 4 C 7 4 6 3.99997 6 5 L 4 5 L 4 8 L 4 19 L 4 20 L 14 20 L 14 19 L 5 19 L 5 8 L 19 8 L 19 14 L 20 14 L 20 8 L 20 5 L 18 5 C 18 3.99997 17 4 17 4 L 14 4 C 14 4 13 3.99997 13 5 L 11 5 C 11 3.99997 10 4 10 4 L 7 4 z M 7 5 L 10 5 L 10 6 L 7 6 L 7 5 z M 14 5 L 17 5 L 17 6 L 14 6 L 14 5 z M 7 9 L 7 11 L 9 11 L 9 9 L 7 9 z M 11 9 L 11 11 L 13 11 L 13 9 L 11 9 z M 15 9 L 15 11 L 17 11 L 17 9 L 15 9 z M 7 12 L 7 14 L 9 14 L 9 12 L 7 12 z M 11 12 L 11 14 L 13 14 L 13 12 L 11 12 z M 15 12 L 15 14 L 17 14 L 17 12 L 15 12 z M 17 15 L 17 17 L 15 17 L 15 18 L 17 18 L 17 20 L 18 20 L 18 18 L 20 18 L 20 17 L 18 17 L 18 15 L 17 15 z "
     class="ColorScheme-Text"
     />
</svg>
